app/assets/images/payment_icons/addi.svg

<svg width="38" height="24" viewBox="0 0 38 24" role="img" aria-labelledby="pi-addi"><title id="pi-addi">ADDI</title><path opacity="0.07" d="M35 0H3C1.3 0 0 1.3 0 3V21C0 22.7 1.4 24 3 24H35C36.7 24 38 22.7 38 21V3C38 1.3 36.6 0 35 0Z" fill="black"/><path d="M35 1C36.1 1 37 1.9 37 3V21C37 22.1 36.1 23 35 23H3C1.9 23 1 22.1 1 21V3C1 1.9 1.9 1 3 1H35Z" fill="white"/><path d="M28.7241 16.2802H30.5585V10.9668H28.7241V16.2802Z" fill="#4E7EFF"/><path d="M30.8191 9.1614C30.8191 8.51997 30.2919 8 29.6415 8C28.9911 8 28.4639 8.51997 28.4639 9.1614C28.4639 9.80284 28.9911 10.3228 29.6415 10.3228C30.2919 10.3228 30.8191 9.80284 30.8191 9.1614Z" fill="#4E7EFF"/><path d="M24.8071 14.6257C24.1036 14.6257 23.5333 14.0633 23.5333 13.3695C23.5333 12.6757 24.1036 12.1132 24.8071 12.1132C25.5106 12.1132 26.0809 12.6757 26.0809 13.3695C26.0809 14.0633 25.5106 14.6257 24.8071 14.6257ZM27.9199 13.3695V8.30273H26.0809V10.6664C25.7325 10.4459 25.2611 10.3231 24.8071 10.3231C23.088 10.3231 21.6943 11.687 21.6943 13.3695C21.6943 15.0519 23.088 16.4159 24.8071 16.4159C26.4694 16.4159 27.9199 15.1548 27.9199 13.3695Z" fill="#4E7EFF"/><path d="M17.979 14.6257C17.2755 14.6257 16.7052 14.0633 16.7052 13.3695C16.7052 12.6757 17.2755 12.1132 17.979 12.1132C18.6825 12.1132 19.2528 12.6757 19.2528 13.3695C19.2528 14.0633 18.6825 14.6257 17.979 14.6257ZM21.0918 13.3695V8.30273H19.2528V10.6664C18.9044 10.4459 18.433 10.3231 17.979 10.3231C16.2599 10.3231 14.8662 11.687 14.8662 13.3695C14.8662 15.0519 16.2599 16.4159 17.979 16.4159C19.6413 16.4159 21.0918 15.1548 21.0918 13.3695Z" fill="#4E7EFF"/><path d="M11.1128 11.8737C10.5304 11.8737 10.0337 12.2344 9.83899 12.7415V11.0542C9.83899 10.3604 10.4093 9.79793 11.1128 9.79793C11.8163 9.79793 12.3866 10.3604 12.3866 11.0542V12.7415C12.1919 12.2344 11.6952 11.8737 11.1128 11.8737ZM12.3866 13.6968V16.2518H14.221V11.176C14.2226 11.1354 14.2256 11.0952 14.2256 11.0542C14.2256 9.37175 12.832 8.00781 11.1128 8.00781C9.39364 8.00781 8 9.37175 8 11.0542V16.2518H9.83438V13.6805C10.0259 14.1938 10.5259 14.5599 11.1128 14.5599C11.6867 14.5599 12.1776 14.2097 12.3781 13.7142L12.3866 13.6968Z" fill="#4E7EFF"/></svg>

<svg width="38" height="24" viewBox="0 0 38 24" fill="none" xmlns="http://www.w3.org/2000/svg" role="img" aria-labelledby="pi-addi"><title id="pi-addi">ADDI</title><path opacity=".07" d="M35 0H3C1.3 0 0 1.3 0 3v18c0 1.7 1.4 3 3 3h32c1.7 0 3-1.3 3-3V3c0-1.7-1.4-3-3-3z" fill="#000"/><path d="M35 1c1.1 0 2 .9 2 2v18c0 1.1-.9 2-2 2H3c-1.1 0-2-.9-2-2V3c0-1.1.9-2 2-2h32z" fill="#fff"/><path d="M28.724 16.28h1.834v-5.313h-1.834v5.313zM30.82 9.161A1.17 1.17 0 0029.641 8c-.65 0-1.178.52-1.178 1.161a1.17 1.17 0 001.178 1.162c.65 0 1.177-.52 1.177-1.162zM24.807 14.626a1.265 1.265 0 01-1.274-1.256c0-.694.57-1.257 1.274-1.257.704 0 1.274.563 1.274 1.257 0 .693-.57 1.256-1.274 1.256zm3.113-1.256V8.303h-1.84v2.363c-.347-.22-.819-.343-1.273-.343-1.719 0-3.113 1.364-3.113 3.046 0 1.683 1.394 3.047 3.113 3.047 1.662 0 3.113-1.261 3.113-3.046zM17.979 14.626a1.265 1.265 0 01-1.274-1.256c0-.694.57-1.257 1.274-1.257.704 0 1.274.563 1.274 1.257 0 .693-.57 1.256-1.274 1.256zm3.113-1.256V8.303h-1.84v2.363c-.348-.22-.819-.343-1.273-.343-1.72 0-3.113 1.364-3.113 3.046 0 1.683 1.394 3.047 3.113 3.047 1.662 0 3.113-1.261 3.113-3.046zM11.113 11.874c-.583 0-1.08.36-1.274.867v-1.687c0-.694.57-1.256 1.274-1.256.703 0 1.274.562 1.274 1.256v1.688a1.362 1.362 0 00-1.274-.868zm1.274 1.823v2.555h1.834v-5.076c.002-.04.005-.08.005-.122 0-1.682-1.394-3.046-3.113-3.046C9.393 8.008 8 9.372 8 11.054v5.198h1.834V13.68c.192.513.692.879 1.279.879.574 0 1.065-.35 1.265-.846l.009-.017z" fill="#4E7EFF"/></svg>
